X:5689
T:Gan ainm
R:Reel
S:
H:
N:
D:
Z:Adrian Scahill
M:2/2
L:1/8
K:A
AGAc B2cd|ecdB cABG|EAA2 BEed|cABG AECE|\
(3ABA Ac B2cd|eAae cABG|EAA2 BEed|1 cABG A2CE:|2 cABG a2ce||\
a2(3aga b3g|f2ga bgeg|abaf (3gag eg|fagb a2ce|\
aec'a gabg|(3fgf ga bgeg|aec'a fdBd|cABG A2 ce:||
